X: 74
T: No_66_Song_Used_in_Treatment_of_Sick_(o).krn
N: Derived from No_66_Song_Used_in_Treatment_of_Sick_(o).krn
%%abc-version 2.0
%%abcx-abcm2ps-target-version 5.9.1 (29 Sep 2008)
%%abc-creator hum2abc beta
%%abcx-conversion-date 2019/03/15 08:36:49
%%humdrum-veritas 3226505536
%%humdrum-veritas-data 17043020
%%linebreak <none>
%%barnumbers 0
L: 1/8
M: 2/4
K: Bb clef=treble
[K:clef=treble][M:2/4]BF FF ||  
[M:3/4]FF FF F!fermata!F ||  
[M:2/4]BF DD | 
DD DD ||  
[M:3/4](3:2:4BBB/F/ BF DD/C/ ||  
[M:2/4]DC B,B, | 
B,B, B,!fermata!B, ||  
[M:3/4]CB, B,B,B,2 ||  
[M:2/4]DCC2 | 
CB, B,B, | 
B,B,B,2 | 
CB, B,B, | 
B,B,B,2 | 
B,4 |]  



